X:1
T:Title
%%score { 1 | 2 }
L:1/8
Q:1/4=100
M:4/4
K:A
V:1 treble nm="Grand Piano"
V:2 bass 
V:1
 [Ec]2 [DB]>[CA] [CE]2 C>C | [CE]2 [CE]>[CE] [CE]4 | [Ec]2 [DB]>[CA] [CA]2 [Ec]2 | [EB]6 z2 | %4
w: Fank~M.~Davis * * * * *||||
 [Ec]2 [DB]>[CA] [CE]2 [A,C]>[A,C] | [CE]2 [CE]>[CE] [CE]4 | F2 F>F G2 B2 | [CA]6 z2 | %8
w: ||||
 [DF]2 [FA]>[FA] [Fd]4 | [CE]2 [CE]>[EA] [EAc]4 | [Ge]2 [GB]>[GB] [EGB]2 [^DAc]2 | [GB]6 z2 | %12
w: ||||
 [Ec]2 [DB]>[CA] [CE]2 [A,C]>[A,C] | [CE]2 [CE]>[CE] [CE]4 | F2 F>F G2 B2 | [CA]6 z2 |] %16
w: ||||
V:2
 [A,,A,]2 [A,,E,]>[A,,E,] [A,,A,]2 [A,,A,]>[A,,A,] | [A,,A,]2 [A,,A,]>[A,,A,] [A,,A,]4 | %2
 [A,,A,]2 [A,,E,]>[A,,E,] [A,,E,]2 [A,,A,]2 | [E,G,]6 z2 | %4
 [A,,A,]2 [A,,E,]>[A,,E,] [A,,A,]2 [A,,E,]>[A,,E,] | [A,,A,]2 [A,,A,]>[A,,A,] [A,,A,]4 | %6
 [D,A,D]2 [D,A,D]>[D,A,D] [E,D]2 [E,D]2 | [A,,A,]6 z2 | [D,A,]2 [D,D]>[D,D] [D,A,]4 | %9
 [A,,A,]2 [A,,A,]>[A,,A,] A,,4 | [E,B,]2 [E,E]>[E,E] B,,2 B,,2 | [E,E]6 z2 | %12
 [A,,A,]2 [A,,E,]>[A,,E,] [A,,A,]2 [A,,E,]>[A,,E,] | [A,,A,]2 [A,,A,]>[A,,A,] [A,,A,]4 | %14
 [D,A,D]2 [D,A,D]>[D,A,D] [E,D]2 [E,D]2 | [A,,E,]6 z2 |] %16

